X:1
T:Title
%%score { ( 1 3 ) | ( 2 4 ) }
L:1/8
M:3/4
K:Ab
V:1 treble nm="Grand Piano"
V:3 treble 
V:2 bass 
V:4 bass 
V:1
 z2 z2[Q:1/4=108] [CE]2 | [CE]3 [CF] [DG]2 | [CA]3 [DB] [Ec]2 | [Fd]3 [DF] [Fd]2 | [Ec]4 [Ec]2 | %5
 c3 B =A2 | c2 B2 G2 | [A,-F]6 | [A,CE]4 [CE]2 | [CE]3 [CF] [DG]2 | [CA]2 [DB]2 [Ec]2 | %11
 [Fd]2 [FA]2 [FB]2 | [Ec]4 [Ec]2 | [EB]3 [EB] [EB]2 | [=DB]2 [DA]2 [DF]2 | E6- | E4 z2 | %17
 [Ec]3 [=D_c] [E=c]2 | [CA]6 | B3 c B2 | F4 z2 | B3 =A B2 | G4 F2 | E2 [EA]2 B2 | c4 z2 | %25
 c3 _c =c2 | e4 c2 | [A,EA]2 B2 c2 | [Fd]4 [FA]2 | c3 B A2 | G3 A B2 | A2- [B,DA-]2 [DFA-]2 | %32
[M:2/4] [CEA]4 |] %33
V:2
 z2 z2 [A,,A,]2 | [A,,A,]3 [A,,A,] [A,,A,]2 | [A,,E,]3 [A,,E,] [A,,A,]2 | [D,A,]3 [D,A,] [D,A,]2 | %4
 [A,,A,]4 [A,,A,]2 | [E,A,E]3 [E,G,D] [E,_G,C]2 | [E,G,D]2 [E,G,D]2 [E,B,D]2 | z2 z2 _C2 | %8
 z2 z2 [A,,A,]2 | [A,,A,]3 [A,,A,] [A,,A,]2 | [A,,E,]4 [A,,A,]2 | [D,A,]2 [D,A,]2 [D,A,]2 | %12
 [A,,A,]4 [A,,A,]2 | [B,,G,]3 [B,,G,] [B,,G,]2 | [B,,F,]2 [B,,F,]2 [B,,A,]2 | %15
 [E,G,]2 [E,G,]2 [E,A,]2 | [E,B,]4 z2 | [A,,A,]3 [A,,A,] [A,,A,]2 | [A,,A,]6 | %19
 [D,F,D]3 [D,F,D] [D,F,D]2 | [D,B,D]4 z2 | [E,G,D]3 [E,_G,D] [E,=G,D]2 | B,4 G,2 | %23
 [A,C]2 [C,A,]2 [E,G,E]2 | [A,E]4 z2 | [A,E]3 [A,=D] [A,E]2 | E4- [A,E]2 | C,2 [E,G,E]2 [A,_G]2 | %28
 [D,A,]4 [D,A,]2 | [E,A,E]3 [E,DE] [E,CE]2 | [E,B,E]3 [E,CE] [E,DE]2 | A,,2 A,,2 A,,2 | %32
[M:2/4] A,,4 |] %33
V:3
 x6 | x6 | x6 | x6 | x6 | x6 | x6 | D4 z2 | x6 | x6 | x6 | x6 | x6 | x6 | x6 | z2 B,2 C2 | D4 z2 | %17
 x6 | x6 | x6 | x6 | x6 | x6 | x6 | x6 | x6 | x6 | x6 | x6 | x6 | x6 | [CE]2 z2 z2 |[M:2/4] x4 |] %33
V:4
 x6 | x6 | x6 | x6 | x6 | x6 | x6 | A,,6- | A,,4 z2 | x6 | x6 | x6 | x6 | x6 | x6 | x6 | x6 | x6 | %18
 x6 | x6 | x6 | x6 | [E,D]6 | x6 | x6 | x6 | [A,C]4 z2 | x6 | x6 | x6 | x6 | x6 |[M:2/4] x4 |] %33

